src/main/resources/icons/DqlIcons/icons/dql.svg

<svg xmlns="http://www.w3.org/2000/svg" xmlns:xlink="http://www.w3.org/1999/xlink" width="16" height="16" viewBox="0 0 16 16">
  <defs>
    <polygon id="blade-copy-2-a" points=".001 0 8 0 8 10 .001 10"/>
  </defs>
  <g fill="none" fill-rule="evenodd">
    <polygon fill="#9AA7B0" fill-opacity=".8" points="7 1 3 5 7 5"/>
    <path fill="#9AA7B0" fill-opacity=".8" d="M7,12.178 C7,10.599 7.782,9.169 9.049,8.281 C8.745,7.931 8.577,7.496 8.567,7.033 C8.557,6.491 8.764,5.982 9.151,5.596 C9.538,5.212 10.056,5 10.608,5 C11.13,5 11.626,5.192 12.005,5.539 L13,6.45 L13,1 L8,1 L8,6 L3,6 L3,15 L7.965,15 C7.365,14.205 7,13.235 7,12.178"/>
    <g transform="translate(8 6)">
      <mask id="blade-copy-2-b" fill="#fff">
        <use xlink:href="#blade-copy-2-a"/>
      </mask>
      <path fill="#DE7539" d="M6.6475,3.3135 L3.3295,0.2765 C2.9165,-0.1025 2.2535,-0.0895 1.8565,0.3045 C1.4605,0.6995 1.4725,1.3315 1.8855,1.7095 L2.7945,2.5325 C1.1745,3.0215 0.0005,4.4685 0.0005,6.1775 C0.0005,8.2895 1.7915,10.0005 4.0005,10.0005 C6.2095,10.0005 8.0005,8.2895 8.0005,6.1775 C8.0005,5.0375 7.4765,4.0135 6.6475,3.3135" mask="url(#blade-copy-2-b)"/>
    </g>
    <path fill="#FFF" d="M14,12.5000318 C14,12.3573369 13.9457194,12.2280036 13.8590186,12.1353896 C13.8585555,12.1329416 13.8581849,12.1307997 13.8577218,12.1283517 L12.0691476,10.1589776 C11.8773128,9.94763809 11.5632077,9.9469241 11.3712804,10.1573456 C11.179353,10.3679711 11.179353,10.7130298 11.3712804,10.9244713 L12.3399949,11.9912666 L10.4621263,11.9912666 C10.2079522,11.9912666 10,12.2201498 10,12.5000318 C10,12.7798119 10.2079522,13.008695 10.4621263,13.008695 L12.3399949,13.008695 L11.3712804,14.0755923 C11.179353,14.2869318 11.179353,14.6320925 11.3712804,14.842616 C11.5632077,15.0531395 11.8773128,15.0523236 12.0691476,14.840984 L13.8577218,12.8716099 C13.8581849,12.869162 13.8585555,12.86702 13.8590186,12.8645721 C13.9457194,12.771958 14,12.6427268 14,12.5000318"/>
  </g>
</svg>

<svg xmlns="http://www.w3.org/2000/svg" xmlns:xlink="http://www.w3.org/1999/xlink" width="16" height="16" viewBox="0 0 16 16"><rect id="frame" width="16" height="16" fill="none"/><defs><path id="a" d="M.001 0H8v10H.001z"/></defs><g fill="none" fill-rule="evenodd"><path fill="#9AA7B0" fill-opacity=".8" d="M7 1L3 5h4z"/><path fill="#9AA7B0" fill-opacity=".8" d="M7 12.178c0-1.579.782-3.009 2.049-3.897a1.96 1.96 0 0 1 .102-2.685A2.055 2.055 0 0 1 10.608 5c.522 0 1.018.192 1.397.539L13 6.45V1H8v5H3v9h4.965A4.666 4.666 0 0 1 7 12.178"/><g transform="translate(8 6)"><mask id="b" fill="#fff"><use xlink:href="#a"/></mask><path fill="#DE7539" d="M6.647 3.313L3.33.276a1.08 1.08 0 0 0-1.473.028.965.965 0 0 0 .03 1.405l.909.824C1.175 3.022 0 4.468 0 6.178 0 8.29 1.79 10 4 10c2.208 0 4-1.711 4-3.823 0-1.14-.524-2.165-1.353-2.865" mask="url(#b)"/></g><path fill="#FFF" d="M14 12.5a.533.533 0 0 0-.141-.365l-.001-.007-1.789-1.969a.464.464 0 0 0-.698-.002.583.583 0 0 0 0 .767l.969 1.067h-1.878c-.254 0-.462.23-.462.509 0 .28.208.509.462.509h1.878l-.969 1.067a.583.583 0 0 0 0 .767c.192.21.506.21.698-.002l1.789-1.97.001-.006A.533.533 0 0 0 14 12.5"/></g></svg>
